X:1
T:Talbott
C:Gresley Manuscript, c. 1500
M:6/8
L:1/8
K:D mixolydian
P:A (3x)
"^Drone: G/D"d2d B2B | A2B GF2 | E2E E3 | G2G E2E | A2G FE2 | D6 "^(3)":|\
M:3/4
P:B
G2G2G2 | G2G2G2 | 
G2G2G2 | G2G2G2 | A2A2A2 | B6 ||\
P:C
G2G2G2 | B2B2B2 |\
c2B2B2 | A6 | 
B2B2B2 | d2d2d2 | g2g2g2 | f2f4 | d6 | e2e2e2 |\
e2e2e2 |\
M:9/8
eee d2B dee |\
M:6/8
d6 |]

